; generated by PrusaSlicer 2.3.0+win64 on 2021-03-07 at 13:23:59 UTC


;
;

;
;
; 

; external perimeters extrusion width = 0.40mm
; perimeters extrusion width = 0.40mm
; infill extrusion width = 0.45mm
; solid infill extrusion width = 0.45mm
; top infill extrusion width = 0.40mm
; first layer extrusion width = 0.42mm

M73 P0 R46
M201 X1250 Y1250 Z400 E5000 ; sets maximum accelerations, mm/sec^2
M203 X180 Y180 Z12 E80 ; sets maximum feedrates, mm/sec
M204 P1250 R1250 T1250 ; sets acceleration (P, T) and retract acceleration (R), mm/sec^2
M205 X8.00 Y8.00 Z2.00 E10.00 ; sets the jerk limits, mm/sec
M205 S0 T0 ; sets the minimum extruding and travel feed rate, mm/sec
M107
;TYPE:Custom
G90 ; use absolute coordinates
M83 ; extruder relative mode
M104 S170 ; set extruder temp for bed leveling
M140 S60 ; set bed temp
M109 R170 ; wait for bed leveling temp
M190 S60 ; wait for bed temp
G28 ; home all without mesh bed level
G29 ; mesh bed leveling 
M104 S215 ; set extruder temp
G92 E0.0
G1 Y-2.0 X179 F2400
G1 Z3 F720
M109 S215 ; wait for extruder temp

; intro line
G1 X170 F1000
G1 Z0.2 F720
G1 X110.0 E8.0 F900
G1 X40.0 E10.0 F700
G92 E0.0

M221 S95 ; set flow
G21 ; set units to millimeters
G90 ; use absolute coordinates
M83 ; use relative distances for extrusion
M900 K0.2 ; Filament gcode LA 1.5
; ; Filament gcode LA 1.0
;LAYER_CHANGE
;Z:0.2
;HEIGHT:0.2
;BEFORE_LAYER_CHANGE
G92 E0.0
;0.2


G1 Z0.200 F9000.000
;AFTER_LAYER_CHANGE
;0.2
G1 E-3.20000 F4200.000
G1 Z0.400 F9000.000
G1 X53.108 Y77.797
G1 Z0.200
G1 E3.20000 F2400.000
M204 S800
;TYPE:Skirt
;WIDTH:0.42
G1 F1200.000
G1 X109.433 Y62.692 E1.82844
G1 X109.972 Y62.623 E0.01704
G1 X115.004 Y62.623 E0.15777
G1 X115.913 Y62.805 E0.02907
G1 X116.681 Y63.319 E0.02897
G1 X136.718 Y83.357 E0.88851
G1 X137.199 Y84.097 E0.02767
G1 X137.377 Y84.961 E0.02767
G1 X137.376 Y95.084 E0.31738
G1 X137.262 Y95.731 E0.02060
G1 X136.978 Y96.319 E0.02048
G1 X116.673 Y116.689 E0.90180
G1 X115.892 Y117.203 E0.02931
G1 X115.039 Y117.377 E0.02731
G1 X109.973 Y117.377 E0.15882
G1 X109.449 Y117.312 E0.01657
G1 X53.221 Y102.246 E1.82518
G1 X52.741 Y102.016 E0.01668
G1 X52.324 Y101.686 E0.01668
G1 X43.295 Y92.656 E0.40037
G1 X42.797 Y91.892 E0.02860
G1 X42.626 Y91.130 E0.02449
G1 X42.628 Y88.844 E0.07168
G1 X42.765 Y88.190 E0.02095
G1 X43.081 Y87.597 E0.02107
G1 X52.338 Y78.300 E0.41135
M73 P1 R46
G1 X53.057 Y77.830 E0.02696
M204 S1250
; printing object Sword.stl id:0 copy 0
G1 E-2.24000 F4200.000
;WIPE_START
G1 F7200.000
G1 X54.647 Y77.403 E-0.91200
;WIPE_END
G1 E-0.04800 F4200.000
G1 Z0.400 F9000.000
G1 X126.836 Y86.836
G1 Z0.200
G1 E3.20000 F2400.000
M204 S800
;TYPE:Perimeter
G1 F1200.000
G1 X133.164 Y86.836 E0.19842
G1 X133.164 Y93.164 E0.19842
G1 X126.836 Y93.164 E0.19842
G1 X126.836 Y86.896 E0.19654
M204 S1250
G1 X127.213 Y87.213 F9000.000
M204 S800
G1 F1200.000
G1 X132.787 Y87.213 E0.17477
G1 X132.787 Y92.787 E0.17477
G1 X127.213 Y92.787 E0.17477
G1 X127.213 Y87.273 E0.17289
M204 S1250
G1 X127.590 Y87.590 F9000.000
M204 S800
;TYPE:External perimeter
G1 F1200.000
G1 X132.410 Y87.590 E0.15113
G1 X132.410 Y92.410 E0.15113
G1 X127.590 Y92.410 E0.15113
G1 X127.590 Y87.650 E0.14925
M204 S1250
G1 X127.486 Y87.204 F9000.000
G1 E-2.24000 F4200.000
;WIPE_START
G1 F7200.000
G1 X129.236 Y87.630 E-0.91200
;WIPE_END
G1 E-0.04800 F4200.000
G1 Z0.400 F9000.000
G1 X113.836 Y86.164
G1 Z0.200
G1 E3.20000 F2400.000
M204 S800
;TYPE:Perimeter
G1 F1200.000
G1 X133.836 Y86.164 E0.62709
M73 P1 R45
G1 X133.836 Y93.836 E0.24054
G1 X113.836 Y93.836 E0.62709
G1 X113.836 Y113.836 E0.62709
G1 X111.164 Y113.836 E0.08377
G1 X111.164 Y98.836 E0.47031
G1 X55.164 Y98.836 E1.75584
G1 X55.164 Y97.836 E0.03135
G1 X54.164 Y97.836 E0.03135
G1 X54.164 Y96.836 E0.03135
G1 X53.164 Y96.836 E0.03135
G1 X53.164 Y95.836 E0.03135
G1 X52.164 Y95.836 E0.03135
G1 X52.164 Y94.836 E0.03135
G1 X51.164 Y94.836 E0.03135
G1 X51.164 Y93.836 E0.03135
G1 X50.164 Y93.836 E0.03135
G1 X50.164 Y92.836 E0.03135
G1 X49.164 Y92.836 E0.03135
G1 X49.164 Y91.836 E0.03135
G1 X48.164 Y91.836 E0.03135
G1 X48.164 Y90.836 E0.03135
G1 X47.164 Y90.836 E0.03135
G1 X47.164 Y89.164 E0.05241
G1 X48.164 Y89.164 E0.03135
G1 X48.164 Y88.164 E0.03135
G1 X49.164 Y88.164 E0.03135
G1 X49.164 Y87.164 E0.03135
G1 X50.164 Y87.164 E0.03135
G1 X50.164 Y86.164 E0.03135
G1 X51.164 Y86.164 E0.03135
G1 X51.164 Y85.164 E0.03135
G1 X52.164 Y85.164 E0.03135
G1 X52.164 Y84.164 E0.03135
G1 X53.164 Y84.164 E0.03135
G1 X53.164 Y83.164 E0.03135
G1 X54.164 Y83.164 E0.03135
G1 X54.164 Y82.164 E0.03135
G1 X55.164 Y82.164 E0.03135
G1 X55.164 Y81.164 E0.03135
G1 X111.164 Y81.164 E1.75584
G1 X111.164 Y66.164 E0.47031
G1 X113.836 Y66.164 E0.08377
G1 X113.836 Y86.104 E0.62520
M204 S1250
G1 X114.213 Y85.787 F9000.000
M204 S800
G1 F1200.000
G1 X134.213 Y85.787 E0.62709
G1 X134.213 Y94.213 E0.26419
G1 X114.213 Y94.213 E0.62709
G1 X114.213 Y114.213 E0.62709
G1 X110.787 Y114.213 E0.10741
G1 X110.787 Y99.213 E0.47031
G1 X54.787 Y99.213 E1.75584
G1 X54.787 Y98.213 E0.03135
G1 X53.787 Y98.213 E0.03135
G1 X53.787 Y97.213 E0.03135
G1 X52.787 Y97.213 E0.03135
G1 X52.787 Y96.213 E0.03135
G1 X51.787 Y96.213 E0.03135
G1 X51.787 Y95.213 E0.03135
G1 X50.787 Y95.213 E0.03135
G1 X50.787 Y94.213 E0.03135
G1 X49.787 Y94.213 E0.03135
G1 X49.787 Y93.213 E0.03135
G1 X48.787 Y93.213 E0.03135
G1 X48.787 Y92.213 E0.03135
G1 X47.787 Y92.213 E0.03135
G1 X47.787 Y91.213 E0.03135
G1 X46.787 Y91.213 E0.03135
G1 X46.787 Y90.213 E0.03135
G1 X45.787 Y90.213 E0.03135
G1 X45.787 Y89.787 E0.01335
G1 X46.787 Y89.787 E0.03135
M73 P2 R45
G1 X46.787 Y88.787 E0.03135
G1 X47.787 Y88.787 E0.03135
G1 X47.787 Y87.787 E0.03135
G1 X48.787 Y87.787 E0.03135
G1 X48.787 Y86.787 E0.03135
G1 X49.787 Y86.787 E0.03135
G1 X49.787 Y85.787 E0.03135
G1 X50.787 Y85.787 E0.03135
G1 X50.787 Y84.787 E0.03135
G1 X51.787 Y84.787 E0.03135
G1 X51.787 Y83.787 E0.03135
G1 X52.787 Y83.787 E0.03135
G1 X52.787 Y82.787 E0.03135
G1 X53.787 Y82.787 E0.03135
G1 X53.787 Y81.787 E0.03135
G1 X54.787 Y81.787 E0.03135
G1 X54.787 Y80.787 E0.03135
G1 X110.787 Y80.787 E1.75584
G1 X110.787 Y65.787 E0.47031
G1 X114.213 Y65.787 E0.10741
G1 X114.213 Y85.727 E0.62520
M204 S1250
G1 X114.590 Y85.410 F9000.000
M204 S800
;TYPE:External perimeter
G1 F1200.000
G1 X134.590 Y85.410 E0.62709
G1 X134.590 Y94.590 E0.28783
G1 X114.590 Y94.590 E0.62709
G1 X114.590 Y114.590 E0.62709
G1 X110.410 Y114.590 E0.13106
G1 X110.410 Y99.590 E0.47031
G1 X54.410 Y99.590 E1.75584
G1 X54.410 Y98.590 E0.03135
G1 X53.410 Y98.590 E0.03135
G1 X53.410 Y97.590 E0.03135
G1 X52.410 Y97.590 E0.03135
G1 X52.410 Y96.590 E0.03135
G1 X51.410 Y96.590 E0.03135
G1 X51.410 Y95.590 E0.03135
G1 X50.410 Y95.590 E0.03135
G1 X50.410 Y94.590 E0.03135
G1 X49.410 Y94.590 E0.03135
G1 X49.410 Y93.590 E0.03135
G1 X48.410 Y93.590 E0.03135
G1 X48.410 Y92.590 E0.03135
G1 X47.410 Y92.590 E0.03135
G1 X47.410 Y91.590 E0.03135
G1 X46.410 Y91.590 E0.03135
G1 X46.410 Y90.590 E0.03135
G1 X45.410 Y90.590 E0.03135
G1 X45.410 Y89.410 E0.03700
G1 X46.410 Y89.410 E0.03135
G1 X46.410 Y88.410 E0.03135
G1 X47.410 Y88.410 E0.03135
G1 X47.410 Y87.410 E0.03135
G1 X48.410 Y87.410 E0.03135
G1 X48.410 Y86.410 E0.03135
G1 X49.410 Y86.410 E0.03135
G1 X49.410 Y85.410 E0.03135
G1 X50.410 Y85.410 E0.03135
G1 X50.410 Y84.410 E0.03135
G1 X51.410 Y84.410 E0.03135
G1 X51.410 Y83.410 E0.03135
G1 X52.410 Y83.410 E0.03135
G1 X52.410 Y82.410 E0.03135
G1 X53.410 Y82.410 E0.03135
G1 X53.410 Y81.410 E0.03135
G1 X54.410 Y81.410 E0.03135
G1 X54.410 Y80.410 E0.03135
G1 X110.410 Y80.410 E1.75584
G1 X110.410 Y65.410 E0.47031
G1 X114.590 Y65.410 E0.13106
G1 X114.590 Y85.350 E0.62520
M204 S1250
G1 X114.617 Y85.809 F9000.000
G1 E-2.24000 F4200.000
;WIPE_START
G1 F7200.000
G1 X116.236 Y85.355 E-0.91200
;WIPE_END
G1 E-0.04800 F4200.000
G1 Z0.400 F9000.000
G1 X126.647 Y86.500
G1 Z0.200
G1 E3.20000 F2400.000
M204 S800
;TYPE:Gap fill
;WIDTH:0.337526
G1 F1200.000
G1 X133.353 Y86.500 E0.16426
G1 X133.475 Y86.525 E0.00305
G1 X133.500 Y86.647 E0.00305
G1 X133.500 Y93.353 E0.16426
G1 X133.475 Y93.475 E0.00305
G1 X133.353 Y93.500 E0.00305
G1 X126.647 Y93.500 E0.16426
M204 S1250
G1 E-2.24000 F4200.000
;WIPE_START
G1 F7200.000
G1 X128.293 Y93.500 E-0.91200
;WIPE_END
G1 E-0.04800 F4200.000
G1 Z0.400 F9000.000
G1 X113.723 Y67.042
G1 Z0.200
G1 E3.20000 F2400.000
M204 S800
;TYPE:Solid infill
;WIDTH:0.42129
G1 F1200.000
G1 X113.127 Y66.447 E0.02649
G1 X112.592 Y66.447 E0.01683
G1 X113.553 Y67.408 E0.04275
G1 X113.553 Y67.943 E0.01683
G1 X112.057 Y66.447 E0.06655
G1 X111.522 Y66.447 E0.01683
G1 X113.553 Y68.478 E0.09036
G1 X113.553 Y69.013 E0.01683
G1 X111.447 Y66.907 E0.09371
G1 X111.447 Y67.442 E0.01683
G1 X113.553 Y69.548 E0.09371
G1 X113.553 Y70.083 E0.01683
G1 X111.447 Y67.977 E0.09371
G1 X111.447 Y68.512 E0.01683
G1 X113.553 Y70.618 E0.09371
G1 X113.553 Y71.153 E0.01683
G1 X111.447 Y69.047 E0.09371
G1 X111.447 Y69.582 E0.01683
G1 X113.553 Y71.688 E0.09371
G1 X113.553 Y72.224 E0.01683
G1 X111.447 Y70.117 E0.09371
G1 X111.447 Y70.653 E0.01683
G1 X113.553 Y72.759 E0.09371
G1 X113.553 Y73.294 E0.01683
G1 X111.447 Y71.188 E0.09371
G1 X111.447 Y71.723 E0.01683
G1 X113.553 Y73.829 E0.09371
G1 X113.553 Y74.364 E0.01683
G1 X111.447 Y72.258 E0.09371
G1 X111.447 Y72.793 E0.01683
G1 X113.553 Y74.899 E0.09371
G1 X113.553 Y75.434 E0.01683
G1 X111.447 Y73.328 E0.09371
G1 X111.447 Y73.863 E0.01683
G1 X113.553 Y75.969 E0.09371
G1 X113.553 Y76.504 E0.01683
G1 X111.447 Y74.398 E0.09371
G1 X111.447 Y74.933 E0.01683
G1 X113.553 Y77.039 E0.09371
G1 X113.553 Y77.575 E0.01683
G1 X111.447 Y75.468 E0.09371
G1 X111.447 Y76.004 E0.01683
G1 X113.553 Y78.110 E0.09371
G1 X113.553 Y78.645 E0.01683
G1 X111.447 Y76.539 E0.09371
G1 X111.447 Y77.074 E0.01683
G1 X113.553 Y79.180 E0.09371
G1 X113.553 Y79.715 E0.01683
G1 X111.447 Y77.609 E0.09371
G1 X111.447 Y78.144 E0.01683
G1 X113.553 Y80.250 E0.09371
G1 X113.553 Y80.785 E0.01683
G1 X111.447 Y78.679 E0.09371
G1 X111.447 Y79.214 E0.01683
G1 X113.553 Y81.320 E0.09371
G1 X113.553 Y81.855 E0.01683
G1 X111.447 Y79.749 E0.09371
G1 X111.447 Y80.284 E0.01683
G1 X113.553 Y82.390 E0.09371
M73 P3 R45
G1 X113.553 Y82.925 E0.01683
G1 X111.447 Y80.819 E0.09371
G1 X111.447 Y81.354 E0.01683
G1 X113.553 Y83.461 E0.09371
G1 X113.553 Y83.996 E0.01683
G1 X111.004 Y81.447 E0.11340
G1 X110.469 Y81.447 E0.01683
G1 X113.553 Y84.531 E0.13721
G1 X113.553 Y85.066 E0.01683
G1 X109.934 Y81.447 E0.16102
G1 X109.399 Y81.447 E0.01683
G1 X113.723 Y85.771 E0.19238
M204 S1250
G1 E-2.24000 F4200.000
;WIPE_START
G1 F7200.000
G1 X112.559 Y84.607 E-0.91200
;WIPE_END
G1 E-0.04800 F4200.000
G1 Z0.400 F9000.000
G1 X126.723 Y86.999
G1 Z0.200
G1 E3.20000 F2400.000
M204 S800
G1 F1200.000
G1 X126.171 Y86.447 E0.02454
G1 X125.636 Y86.447 E0.01683
G1 X126.553 Y87.364 E0.04080
G1 X126.553 Y87.899 E0.01683
G1 X125.101 Y86.447 E0.06461
G1 X124.566 Y86.447 E0.01683
G1 X126.553 Y88.434 E0.08842
G1 X126.553 Y88.969 E0.01683
G1 X124.031 Y86.447 E0.11222
G1 X123.496 Y86.447 E0.01683
G1 X126.553 Y89.504 E0.13603
G1 X126.553 Y90.039 E0.01683
G1 X122.961 Y86.447 E0.15984
G1 X122.425 Y86.447 E0.01683
G1 X126.553 Y90.575 E0.18365
G1 X126.553 Y91.110 E0.01683
G1 X121.890 Y86.447 E0.20746
G1 X121.355 Y86.447 E0.01683
G1 X126.553 Y91.645 E0.23127
G1 X126.553 Y92.180 E0.01683
G1 X120.820 Y86.447 E0.25507
G1 X120.285 Y86.447 E0.01683
G1 X126.553 Y92.715 E0.27888
G1 X126.553 Y93.048 E0.01049
G1 X126.365 Y93.048 E0.00593
G1 X126.365 Y93.061 E0.00041
G1 X119.750 Y86.447 E0.29430
G1 X119.215 Y86.447 E0.01683
G1 X126.321 Y93.553 E0.31617
G1 X125.786 Y93.553 E0.01683
G1 X118.680 Y86.447 E0.31617
G1 X118.145 Y86.447 E0.01683
G1 X125.251 Y93.553 E0.31617
G1 X124.716 Y93.553 E0.01683
G1 X117.610 Y86.447 E0.31617
G1 X117.075 Y86.447 E0.01683
G1 X124.181 Y93.553 E0.31617
G1 X123.646 Y93.553 E0.01683
G1 X116.539 Y86.447 E0.31617
G1 X116.004 Y86.447 E0.01683
G1 X123.110 Y93.553 E0.31617
G1 X122.575 Y93.553 E0.01683
G1 X115.469 Y86.447 E0.31617
G1 X114.934 Y86.447 E0.01683
G1 X122.040 Y93.553 E0.31617
G1 X121.505 Y93.553 E0.01683
G1 X114.229 Y86.277 E0.32372
M204 S1250
M73 P3 R44
G1 E-2.24000 F4200.000
;WIPE_START
G1 F7200.000
G1 X115.393 Y87.441 E-0.91200
;WIPE_END
G1 E-0.04800 F4200.000
G1 Z0.400 F9000.000
G1 X108.694 Y81.277
G1 Z0.200
G1 E3.20000 F2400.000
M204 S800
G1 F1200.000
G1 X120.970 Y93.553 E0.54619
G1 X120.435 Y93.553 E0.01683
G1 X108.329 Y81.447 E0.53864
G1 X107.794 Y81.447 E0.01683
G1 X119.900 Y93.553 E0.53864
G1 X119.365 Y93.553 E0.01683
G1 X107.259 Y81.447 E0.53864
G1 X106.724 Y81.447 E0.01683
G1 X118.830 Y93.553 E0.53864
G1 X118.295 Y93.553 E0.01683
G1 X106.188 Y81.447 E0.53864
G1 X105.653 Y81.447 E0.01683
G1 X117.759 Y93.553 E0.53864
G1 X117.224 Y93.553 E0.01683
G1 X105.118 Y81.447 E0.53864
G1 X104.583 Y81.447 E0.01683
G1 X116.689 Y93.553 E0.53864
G1 X116.154 Y93.553 E0.01683
G1 X104.048 Y81.447 E0.53864
G1 X103.513 Y81.447 E0.01683
G1 X115.619 Y93.553 E0.53864
G1 X115.084 Y93.553 E0.01683
G1 X102.978 Y81.447 E0.53864
G1 X102.443 Y81.447 E0.01683
G1 X114.549 Y93.553 E0.53864
G1 X114.014 Y93.553 E0.01683
G1 X101.908 Y81.447 E0.53864
G1 X101.373 Y81.447 E0.01683
G1 X113.553 Y93.627 E0.54195
G1 X113.553 Y94.162 E0.01683
G1 X100.838 Y81.447 E0.56576
G1 X100.302 Y81.447 E0.01683
G1 X113.553 Y94.698 E0.58957
G1 X113.553 Y95.233 E0.01683
G1 X99.767 Y81.447 E0.61337
M73 P4 R44
G1 X99.232 Y81.447 E0.01683
G1 X113.553 Y95.768 E0.63718
G1 X113.553 Y96.303 E0.01683
G1 X98.697 Y81.447 E0.66099
G1 X98.162 Y81.447 E0.01683
G1 X113.553 Y96.838 E0.68480
G1 X113.553 Y97.373 E0.01683
G1 X97.627 Y81.447 E0.70861
G1 X97.092 Y81.447 E0.01683
G1 X113.553 Y97.908 E0.73242
G1 X113.553 Y98.443 E0.01683
G1 X96.557 Y81.447 E0.75622
G1 X96.022 Y81.447 E0.01683
G1 X113.553 Y98.978 E0.78003
G1 X113.553 Y99.513 E0.01683
G1 X95.487 Y81.447 E0.80384
G1 X94.951 Y81.447 E0.01683
G1 X113.553 Y100.049 E0.82765
G1 X113.553 Y100.584 E0.01683
G1 X94.416 Y81.447 E0.85146
G1 X93.881 Y81.447 E0.01683
G1 X110.987 Y98.553 E0.76111
G1 X111.447 Y98.553 E0.01446
G1 X111.447 Y99.013 E0.01446
G1 X113.553 Y101.119 E0.09371
G1 X113.553 Y101.654 E0.01683
G1 X111.447 Y99.548 E0.09371
G1 X111.447 Y100.083 E0.01683
G1 X113.553 Y102.189 E0.09371
G1 X113.553 Y102.724 E0.01683
G1 X111.447 Y100.618 E0.09371
G1 X111.447 Y101.153 E0.01683
G1 X113.553 Y103.259 E0.09371
G1 X113.553 Y103.794 E0.01683
G1 X111.447 Y101.688 E0.09371
G1 X111.447 Y102.223 E0.01683
G1 X113.553 Y104.329 E0.09371
G1 X113.553 Y104.864 E0.01683
G1 X111.447 Y102.758 E0.09371
G1 X111.447 Y103.293 E0.01683
G1 X113.553 Y105.400 E0.09371
G1 X113.553 Y105.935 E0.01683
G1 X111.447 Y103.829 E0.09371
G1 X111.447 Y104.364 E0.01683
G1 X113.553 Y106.470 E0.09371
G1 X113.553 Y107.005 E0.01683
G1 X111.447 Y104.899 E0.09371
G1 X111.447 Y105.434 E0.01683
G1 X113.553 Y107.540 E0.09371
G1 X113.553 Y108.075 E0.01683
G1 X111.447 Y105.969 E0.09371
G1 X111.447 Y106.504 E0.01683
G1 X113.553 Y108.610 E0.09371
G1 X113.553 Y109.145 E0.01683
G1 X111.447 Y107.039 E0.09371
G1 X111.447 Y107.574 E0.01683
G1 X113.553 Y109.680 E0.09371
G1 X113.553 Y110.215 E0.01683
G1 X111.447 Y108.109 E0.09371
G1 X111.447 Y108.644 E0.01683
G1 X113.553 Y110.750 E0.09371
G1 X113.553 Y111.286 E0.01683
G1 X111.447 Y109.179 E0.09371
G1 X111.447 Y109.715 E0.01683
G1 X113.553 Y111.821 E0.09371
G1 X113.553 Y112.356 E0.01683
G1 X111.447 Y110.250 E0.09371
G1 X111.447 Y110.785 E0.01683
G1 X113.553 Y112.891 E0.09371
G1 X113.553 Y113.426 E0.01683
G1 X111.447 Y111.320 E0.09371
G1 X111.447 Y111.855 E0.01683
G1 X113.145 Y113.553 E0.07555
G1 X112.610 Y113.553 E0.01683
G1 X111.447 Y112.390 E0.05175
G1 X111.447 Y112.925 E0.01683
G1 X112.075 Y113.553 E0.02794
G1 X111.540 Y113.553 E0.01683
G1 X111.277 Y113.291 E0.01168
M204 S1250
G1 E-2.24000 F4200.000
;WIPE_START
G1 F7200.000
G1 X111.540 Y113.553 E-0.20572
G1 X112.075 Y113.553 E-0.29653
G1 X111.552 Y113.030 E-0.40975
;WIPE_END
G1 E-0.04800 F4200.000
G1 Z0.400 F9000.000
G1 X110.622 Y98.723
G1 Z0.200
G1 E3.20000 F2400.000
M204 S800
G1 F1200.000
G1 X93.346 Y81.447 E0.76866
G1 X92.811 Y81.447 E0.01683
G1 X109.917 Y98.553 E0.76111
G1 X109.382 Y98.553 E0.01683
G1 X92.276 Y81.447 E0.76111
G1 X91.741 Y81.447 E0.01683
G1 X108.847 Y98.553 E0.76111
