; generated by PrusaSlicer 2.3.0+win64 on 2021-03-24 at 07:13:53 UTC


;
;

;
;
; 

; external perimeters extrusion width = 0.40mm
; perimeters extrusion width = 0.40mm
; infill extrusion width = 0.45mm
; solid infill extrusion width = 0.45mm
; top infill extrusion width = 0.40mm
; first layer extrusion width = 0.42mm

M73 P0 R28
M201 X1250 Y1250 Z400 E5000 ; sets maximum accelerations, mm/sec^2
M203 X180 Y180 Z12 E80 ; sets maximum feedrates, mm/sec
M204 P1250 R1250 T1250 ; sets acceleration (P, T) and retract acceleration (R), mm/sec^2
M205 X8.00 Y8.00 Z2.00 E10.00 ; sets the jerk limits, mm/sec
M205 S0 T0 ; sets the minimum extruding and travel feed rate, mm/sec
M107
;TYPE:Custom
G90 ; use absolute coordinates
M83 ; extruder relative mode
M104 S170 ; set extruder temp for bed leveling
M140 S60 ; set bed temp
M109 R170 ; wait for bed leveling temp
M190 S60 ; wait for bed temp
G28 ; home all without mesh bed level
G29 ; mesh bed leveling 
M104 S215 ; set extruder temp
G92 E0.0
G1 Y-2.0 X179 F2400
G1 Z3 F720
M109 S215 ; wait for extruder temp

; intro line
G1 X170 F1000
G1 Z0.2 F720
G1 X110.0 E8.0 F900
G1 X40.0 E10.0 F700
G92 E0.0

M221 S95 ; set flow
G21 ; set units to millimeters
G90 ; use absolute coordinates
M83 ; use relative distances for extrusion
M900 K0.2 ; Filament gcode LA 1.5
; ; Filament gcode LA 1.0
;LAYER_CHANGE
;Z:0.2
;HEIGHT:0.2
;BEFORE_LAYER_CHANGE
G92 E0.0
;0.2


M73 P0 R27
G1 Z0.200 F9000.000
;AFTER_LAYER_CHANGE
;0.2
G1 E-3.20000 F4200.000
G1 Z0.400 F9000.000
G1 X84.850 Y84.877
G1 Z0.200
G1 E3.20000 F2400.000
M204 S800
;TYPE:Skirt
;WIDTH:0.42
G1 F1177
G1 X86.028 Y83.921 E0.04755
G1 X87.141 Y83.327 E0.03957
M73 P1 R27
G1 X88.586 Y82.880 E0.04743
G1 X90.105 Y82.743 E0.04783
G1 X91.340 Y82.867 E0.03890
G1 X92.790 Y83.298 E0.04743
G1 X94.115 Y84.018 E0.04729
G1 X95.089 Y84.820 E0.03957
G1 X96.050 Y85.977 E0.04715
G1 X96.753 Y87.316 E0.04742
G1 X97.117 Y88.520 E0.03943
G1 X97.271 Y90.026 E0.04747
G1 X97.154 Y91.321 E0.04077
G1 X96.682 Y92.890 E0.05135
G1 X96.058 Y94.042 E0.04110
G1 X95.054 Y95.247 E0.04916
G1 X94.041 Y96.065 E0.04083
G1 X92.894 Y96.689 E0.04096
G1 X91.392 Y97.156 E0.04930
G1 X90.058 Y97.291 E0.04205
G1 X88.459 Y97.126 E0.05039
G1 X87.220 Y96.740 E0.04069
G1 X86.067 Y96.136 E0.04082
G1 X84.837 Y95.142 E0.04958
G1 X83.971 Y94.089 E0.04274
G1 X83.236 Y92.695 E0.04944
G1 X82.864 Y91.438 E0.04110
G1 X82.726 Y90.143 E0.04083
G1 X82.868 Y88.577 E0.04930
G1 X83.242 Y87.320 E0.04111
G1 X84.015 Y85.881 E0.05121
G1 X84.812 Y84.923 E0.03909
M204 S1250
G1 X85.100 Y85.163 F9000.000
M204 S800
G1 F1177
G1 X86.237 Y84.235 E0.04600
G1 X87.283 Y83.676 E0.03720
G1 X88.658 Y83.250 E0.04512
G1 X90.103 Y83.120 E0.04550
G1 X91.264 Y83.236 E0.03657
G1 X92.643 Y83.646 E0.04513
G1 X93.904 Y84.331 E0.04500
G1 X94.821 Y85.085 E0.03720
G1 X95.735 Y86.186 E0.04487
G1 X96.405 Y87.460 E0.04512
G1 X96.747 Y88.591 E0.03707
G1 X96.894 Y90.026 E0.04523
G1 X96.785 Y91.248 E0.03846
G1 X96.335 Y92.744 E0.04899
G1 X95.744 Y93.832 E0.03880
G1 X94.786 Y94.982 E0.04694
G1 X93.829 Y95.753 E0.03855
G1 X92.749 Y96.341 E0.03854
G1 X91.312 Y96.788 E0.04719
G1 X90.056 Y96.914 E0.03957
G1 X88.535 Y96.756 E0.04796
G1 X87.365 Y96.392 E0.03842
G1 X86.275 Y95.822 E0.03854
G1 X85.098 Y94.871 E0.04746
G1 X84.285 Y93.880 E0.04021
G1 X83.583 Y92.548 E0.04720
G1 X83.234 Y91.365 E0.03868
G1 X83.103 Y90.142 E0.03855
G1 X83.239 Y88.647 E0.04707
G1 X83.590 Y87.465 E0.03868
G1 X84.330 Y86.088 E0.04899
G1 X85.062 Y85.209 E0.03588
M204 S1250
G1 X85.350 Y85.449 F9000.000
M204 S800
G1 F1177
G1 X86.449 Y84.547 E0.04458
G1 X87.426 Y84.025 E0.03472
G1 X88.730 Y83.620 E0.04282
G1 X90.105 Y83.497 E0.04329
G1 X91.192 Y83.607 E0.03425
G1 X92.498 Y83.993 E0.04270
G1 X93.694 Y84.645 E0.04270
G1 X94.552 Y85.350 E0.03484
G1 X95.421 Y86.394 E0.04258
G1 X96.056 Y87.603 E0.04282
G1 X96.377 Y88.663 E0.03472
G1 X96.517 Y90.026 E0.04297
G1 X96.415 Y91.171 E0.03604
G1 X95.988 Y92.595 E0.04661
G1 X95.436 Y93.616 E0.03639
G1 X94.520 Y94.714 E0.04483
G1 X93.620 Y95.440 E0.03627
G1 X92.608 Y95.992 E0.03615
G1 X91.239 Y96.418 E0.04495
G1 X90.058 Y96.537 E0.03722
G1 X88.606 Y96.386 E0.04578
G1 X87.509 Y96.043 E0.03603
G1 X86.487 Y95.510 E0.03614
G1 X85.366 Y94.604 E0.04519
G1 X84.600 Y93.673 E0.03781
G1 X83.930 Y92.401 E0.04507
G1 X83.603 Y91.291 E0.03627
G1 X83.480 Y90.145 E0.03615
G1 X83.609 Y88.717 E0.04495
G1 X83.939 Y87.608 E0.03627
G1 X84.643 Y86.299 E0.04661
G1 X85.312 Y85.495 E0.03278
M204 S1250
; printing object Bishop.stl id:0 copy 0
G1 E-2.24000 F4200.000
;WIPE_START
G1 F7200.000
G1 X86.449 Y84.547 E-0.82064
G1 X86.595 Y84.469 E-0.09136
;WIPE_END
G1 E-0.04800 F4200.000
G1 Z0.400 F9000.000
G1 X88.440 Y87.522
G1 Z0.200
G1 E3.20000 F2400.000
M204 S800
;TYPE:Perimeter
G1 F1177
G1 X88.596 Y87.430 E0.00567
G1 X89.011 Y87.246 E0.01422
G1 X89.368 Y87.145 E0.01165
G1 X89.647 Y87.095 E0.00887
G1 X89.840 Y87.079 E0.00607
G1 X90.230 Y87.086 E0.01223
G1 X90.714 Y87.162 E0.01536
G1 X90.904 Y87.217 E0.00623
G1 X91.321 Y87.390 E0.01412
G1 X91.695 Y87.614 E0.01368
G1 X91.977 Y87.843 E0.01138
G1 X92.171 Y88.035 E0.00858
G1 X92.454 Y88.397 E0.01440
G1 X92.649 Y88.743 E0.01245
G1 X92.811 Y89.163 E0.01412
G1 X92.909 Y89.603 E0.01412
G1 X92.940 Y90.014 E0.01294
G1 X92.899 Y90.495 E0.01514
G1 X92.782 Y90.961 E0.01506
G1 X92.695 Y91.185 E0.00754
G1 X92.469 Y91.609 E0.01506
G1 X92.176 Y91.990 E0.01506
G1 X92.007 Y92.161 E0.00754
G1 X91.631 Y92.459 E0.01506
G1 X91.211 Y92.692 E0.01506
G1 X90.759 Y92.854 E0.01506
G1 X90.525 Y92.907 E0.00753
G1 X90.047 Y92.954 E0.01505
G1 X89.806 Y92.948 E0.00753
G1 X89.332 Y92.877 E0.01505
G1 X88.874 Y92.731 E0.01506
G1 X88.667 Y92.635 E0.00715
G1 X88.359 Y92.450 E0.01127
G1 X88.051 Y92.216 E0.01213
G1 X87.887 Y92.060 E0.00710
G1 X87.582 Y91.689 E0.01506
G1 X87.342 Y91.273 E0.01506
G1 X87.248 Y91.052 E0.00754
G1 X87.116 Y90.590 E0.01506
G1 X87.060 Y90.112 E0.01507
G1 X87.062 Y89.872 E0.00754
G1 X87.124 Y89.396 E0.01507
G1 X87.264 Y88.935 E0.01507
G1 X87.361 Y88.716 E0.00754
G1 X87.608 Y88.303 E0.01507
G1 X87.745 Y88.127 E0.00698
G1 X88.080 Y87.789 E0.01494
G1 X88.392 Y87.557 E0.01218
M204 S1250
G1 X87.832 Y87.503 F9000.000
M204 S800
G1 F1177
G1 X88.232 Y87.206 E0.01561
G1 X88.424 Y87.094 E0.00698
G1 X88.882 Y86.891 E0.01571
G1 X89.283 Y86.777 E0.01307
G1 X89.597 Y86.721 E0.01000
G1 X89.827 Y86.701 E0.00723
G1 X90.255 Y86.709 E0.01344
G1 X90.805 Y86.796 E0.01746
G1 X91.030 Y86.861 E0.00732
G1 X91.491 Y87.052 E0.01565
G1 X91.911 Y87.305 E0.01538
G1 X92.229 Y87.561 E0.01280
G1 X92.454 Y87.784 E0.00993
G1 X92.764 Y88.182 E0.01582
G1 X92.994 Y88.588 E0.01463
G1 X93.173 Y89.054 E0.01564
G1 X93.282 Y89.541 E0.01564
G1 X93.317 Y90.015 E0.01492
G1 X93.271 Y90.557 E0.01705
G1 X93.216 Y90.823 E0.00851
G1 X93.041 Y91.336 E0.01700
G1 X92.786 Y91.814 E0.01699
G1 X92.629 Y92.035 E0.00850
G1 X92.265 Y92.436 E0.01699
G1 X91.840 Y92.773 E0.01699
G1 X91.609 Y92.914 E0.00850
G1 X91.115 Y93.138 E0.01699
G1 X90.592 Y93.278 E0.01699
G1 X90.053 Y93.331 E0.01699
G1 X89.782 Y93.324 E0.00850
G1 X89.246 Y93.245 E0.01699
G1 X88.985 Y93.173 E0.00850
G1 X88.491 Y92.969 E0.01675
G1 X88.148 Y92.763 E0.01255
G1 X87.806 Y92.503 E0.01343
G1 X87.616 Y92.322 E0.00824
G1 X87.272 Y91.904 E0.01699
G1 X87.127 Y91.675 E0.00850
G1 X86.895 Y91.185 E0.01699
G1 X86.745 Y90.664 E0.01700
G1 X86.703 Y90.396 E0.00851
G1 X86.685 Y89.854 E0.01700
G1 X86.755 Y89.316 E0.01700
G1 X86.823 Y89.053 E0.00851
G1 X87.022 Y88.549 E0.01701
G1 X87.301 Y88.083 E0.01701
G1 X87.461 Y87.878 E0.00817
G1 X87.790 Y87.546 E0.01466
M204 S1250
G1 X87.522 Y87.280 F9000.000
M204 S800
;TYPE:External perimeter
G1 F1177
G1 X88.024 Y86.891 E0.01991
G1 X88.252 Y86.758 E0.00829
G1 X88.754 Y86.536 E0.01720
G1 X89.199 Y86.409 E0.01450
G1 X89.548 Y86.347 E0.01112
G1 X89.814 Y86.324 E0.00838
G1 X90.281 Y86.332 E0.01465
G1 X90.633 Y86.374 E0.01110
G1 X90.897 Y86.430 E0.00848
G1 X91.155 Y86.505 E0.00841
G1 X91.661 Y86.715 E0.01718
G1 X92.128 Y86.995 E0.01708
G1 X92.480 Y87.280 E0.01422
G1 X92.736 Y87.533 E0.01128
G1 X93.074 Y87.967 E0.01723
G1 X93.338 Y88.433 E0.01681
G1 X93.535 Y88.944 E0.01717
G1 X93.654 Y89.479 E0.01717
G1 X93.695 Y90.016 E0.01690
G1 X93.644 Y90.619 E0.01896
G1 X93.582 Y90.914 E0.00947
G1 X93.388 Y91.486 E0.01893
G1 X93.103 Y92.018 E0.01893
G1 X92.929 Y92.265 E0.00947
G1 X92.523 Y92.712 E0.01892
G1 X92.050 Y93.087 E0.01892
G1 X91.792 Y93.244 E0.00947
G1 X91.242 Y93.493 E0.01892
G1 X90.660 Y93.649 E0.01892
G1 X90.059 Y93.708 E0.01892
G1 X89.757 Y93.701 E0.00947
G1 X89.160 Y93.612 E0.01892
G1 X88.869 Y93.532 E0.00947
G1 X88.314 Y93.302 E0.01884
G1 X87.936 Y93.075 E0.01383
G1 X87.562 Y92.791 E0.01473
G1 X87.345 Y92.585 E0.00937
G1 X86.962 Y92.119 E0.01893
G1 X86.800 Y91.864 E0.00947
G1 X86.542 Y91.318 E0.01893
G1 X86.375 Y90.738 E0.01893
G1 X86.328 Y90.439 E0.00947
G1 X86.308 Y89.836 E0.01893
G1 X86.386 Y89.237 E0.01894
G1 X86.462 Y88.944 E0.00948
G1 X86.684 Y88.382 E0.01894
G1 X86.994 Y87.864 E0.01894
G1 X87.177 Y87.628 E0.00935
G1 X87.480 Y87.323 E0.01348
M204 S1250
G1 X87.901 Y87.410 F9000.000
G1 E-2.24000 F4200.000
;WIPE_START
G1 F7200.000
G1 X88.024 Y86.891 E-0.38494
G1 X88.252 Y86.758 E-0.14654
G1 X88.754 Y86.536 E-0.30397
G1 X88.887 Y86.498 E-0.07655
;WIPE_END
G1 E-0.04800 F4200.000
G1 Z0.400 F9000.000
G1 X92.559 Y88.824
G1 Z0.200
G1 E3.20000 F2400.000
M204 S800
;TYPE:Solid infill
;WIDTH:0.421655
G1 F1177
G1 X91.788 Y88.054 E0.03433
G1 X91.532 Y87.847 E0.01037
G1 X91.193 Y87.643 E0.01245
G1 X90.811 Y87.485 E0.01304
G1 X90.636 Y87.436 E0.00572
G1 X92.567 Y89.367 E0.08602
G1 X92.630 Y89.649 E0.00909
G1 X92.648 Y89.984 E0.01055
G1 X90.029 Y87.365 E0.11663
G1 X89.849 Y87.362 E0.00565
G1 X89.531 Y87.403 E0.01010
G1 X92.605 Y90.477 E0.13690
G1 X92.575 Y90.661 E0.00588
G1 X92.493 Y90.901 E0.00796
G1 X89.106 Y87.514 E0.15085
G1 X88.735 Y87.678 E0.01278
G1 X92.328 Y91.271 E0.16003
G1 X92.126 Y91.604 E0.01227
G1 X88.414 Y87.893 E0.16529
G1 X88.266 Y88.003 E0.00583
G1 X88.128 Y88.142 E0.00616
G1 X91.873 Y91.888 E0.16681
G1 X91.585 Y92.135 E0.01196
G1 X87.873 Y88.423 E0.16532
G1 X87.668 Y88.753 E0.01225
G1 X91.262 Y92.348 E0.16009
G1 X90.894 Y92.515 E0.01275
G1 X87.504 Y89.125 E0.15099
G1 X87.454 Y89.250 E0.00425
G1 X87.390 Y89.546 E0.00955
G1 X90.471 Y92.628 E0.13723
G1 X89.977 Y92.669 E0.01562
G1 X87.351 Y90.043 E0.11696
G1 X87.360 Y90.320 E0.00872
G1 X87.427 Y90.655 E0.01076
G1 X89.365 Y92.593 E0.08634
G1 X89.192 Y92.545 E0.00567
G1 X88.795 Y92.382 E0.01353
G1 X88.518 Y92.215 E0.01017
G1 X88.243 Y92.006 E0.01088
G1 X87.434 Y91.198 E0.03601
M204 S1250
; stop printing object Bishop.stl id:0 copy 0
M106 S84.15
;LAYER_CHANGE
;Z:0.25
;HEIGHT:0.05
;BEFORE_LAYER_CHANGE
G92 E0.0
;0.25


G1 Z0.250 F9000.000
;AFTER_LAYER_CHANGE
;0.25
M104 S210 ; set temperature
G1 E-3.20000 F4200.000
G1 Z0.450 F9000.000
G1 X83.971 Y94.089
G1 Z0.250
G1 E3.20000 F2400.000
;TYPE:Skirt
;WIDTH:0.42
G1 F1219
G1 X83.236 Y92.695 E0.01341
G1 X82.864 Y91.438 E0.01115
G1 X82.726 Y90.143 E0.01108
G1 X82.868 Y88.577 E0.01338
G1 X83.242 Y87.320 E0.01115
G1 X84.015 Y85.881 E0.01390
G1 X84.850 Y84.877 E0.01112
G1 X86.028 Y83.921 E0.01290
G1 X87.141 Y83.327 E0.01074
G1 X88.586 Y82.880 E0.01287
G1 X90.105 Y82.743 E0.01298
G1 X91.340 Y82.867 E0.01055
G1 X92.790 Y83.298 E0.01287
G1 X94.115 Y84.018 E0.01283
G1 X95.089 Y84.820 E0.01074
G1 X96.050 Y85.977 E0.01279
G1 X96.753 Y87.316 E0.01287
G1 X97.117 Y88.520 E0.01070
G1 X97.271 Y90.026 E0.01288
G1 X97.154 Y91.321 E0.01106
G1 X96.682 Y92.890 E0.01393
G1 X96.058 Y94.042 E0.01115
G1 X95.054 Y95.247 E0.01334
G1 X94.041 Y96.065 E0.01108
G1 X92.894 Y96.689 E0.01111
G1 X91.392 Y97.156 E0.01338
G1 X90.058 Y97.291 E0.01141
G1 X88.459 Y97.126 E0.01367
G1 X87.220 Y96.740 E0.01104
M73 P2 R27
G1 X86.067 Y96.136 E0.01108
G1 X84.837 Y95.142 E0.01345
G1 X84.009 Y94.136 E0.01109
G1 X84.299 Y93.898 F9000.000
G1 F1219
G1 X83.583 Y92.548 E0.01300
G1 X83.234 Y91.365 E0.01049
G1 X83.103 Y90.142 E0.01046
G1 X83.239 Y88.647 E0.01277
G1 X83.590 Y87.465 E0.01050
G1 X84.330 Y86.088 E0.01329
G1 X85.116 Y85.143 E0.01046
G1 X86.237 Y84.235 E0.01227
G1 X87.283 Y83.676 E0.01009
G1 X88.658 Y83.250 E0.01224
G1 X90.103 Y83.120 E0.01235
G1 X91.264 Y83.236 E0.00992
G1 X92.643 Y83.646 E0.01224
G1 X93.904 Y84.331 E0.01221
G1 X94.821 Y85.085 E0.01009
G1 X95.735 Y86.186 E0.01217
G1 X96.405 Y87.460 E0.01224
G1 X96.747 Y88.591 E0.01006
G1 X96.894 Y90.026 E0.01227
G1 X96.785 Y91.248 E0.01043
G1 X96.335 Y92.744 E0.01329
G1 X95.744 Y93.832 E0.01053
G1 X94.786 Y94.982 E0.01274
G1 X93.829 Y95.753 E0.01046
G1 X92.749 Y96.341 E0.01046
G1 X91.312 Y96.788 E0.01281
G1 X90.056 Y96.914 E0.01074
G1 X88.535 Y96.756 E0.01301
G1 X87.365 Y96.392 E0.01042
G1 X86.275 Y95.822 E0.01046
G1 X85.098 Y94.871 E0.01288
G1 X84.337 Y93.944 E0.01020
G1 X84.627 Y93.706 F9000.000
G1 F1219
G1 X83.930 Y92.401 E0.01259
G1 X83.603 Y91.291 E0.00984
G1 X83.480 Y90.145 E0.00981
G1 X83.609 Y88.717 E0.01220
G1 X83.939 Y87.608 E0.00984
G1 X84.643 Y86.299 E0.01265
G1 X85.383 Y85.410 E0.00984
G1 X86.449 Y84.547 E0.01167
G1 X87.426 Y84.025 E0.00942
G1 X88.730 Y83.620 E0.01162
G1 X90.105 Y83.497 E0.01175
G1 X91.192 Y83.607 E0.00929
G1 X92.498 Y83.993 E0.01159
G1 X93.694 Y84.645 E0.01159
G1 X94.552 Y85.350 E0.00945
G1 X95.421 Y86.394 E0.01155
G1 X96.056 Y87.603 E0.01162
G1 X96.377 Y88.663 E0.00942
G1 X96.517 Y90.026 E0.01166
G1 X96.415 Y91.171 E0.00978
G1 X95.988 Y92.595 E0.01265
G1 X95.436 Y93.616 E0.00987
G1 X94.520 Y94.714 E0.01216
G1 X93.620 Y95.440 E0.00984
G1 X92.608 Y95.992 E0.00981
G1 X91.239 Y96.418 E0.01220
G1 X90.058 Y96.537 E0.01010
G1 X88.606 Y96.386 E0.01242
G1 X87.509 Y96.043 E0.00978
G1 X86.487 Y95.510 E0.00981
G1 X85.366 Y94.604 E0.01226
G1 X84.665 Y93.752 E0.00939
; printing object Bishop.stl id:0 copy 0
G1 E-2.24000 F4200.000
;WIPE_START
G1 F7200.000
G1 X83.930 Y92.401 E-0.85241
G1 X83.900 Y92.298 E-0.05959
;WIPE_END
G1 E-0.04800 F4200.000
G1 Z0.450 F9000.000
G1 X87.415 Y91.834
G1 Z0.250
G1 E3.20000 F2400.000
M204 S300
;TYPE:Perimeter
;WIDTH:0.4
G1 F900.000
G1 X87.153 Y91.388 E0.00418
G1 X86.984 Y90.951 E0.00379
G1 X86.896 Y90.608 E0.00286
G1 X86.840 Y90.092 E0.00420
G1 X86.845 Y89.842 E0.00202
G1 X86.909 Y89.361 E0.00392
G1 X87.055 Y88.868 E0.00417
G1 X87.162 Y88.625 E0.00214
G1 X87.423 Y88.187 E0.00413
G1 X87.743 Y87.806 E0.00402
G1 X87.948 Y87.614 E0.00227
G1 X88.311 Y87.345 E0.00365
G1 X88.491 Y87.240 E0.00169
G1 X88.954 Y87.036 E0.00410
G1 X89.381 Y86.918 E0.00358
G1 X89.830 Y86.861 E0.00366
G1 X90.293 Y86.871 E0.00374
G1 X90.513 Y86.899 E0.00180
G1 X90.794 Y86.960 E0.00232
G1 X91.228 Y87.106 E0.00371
G1 X91.421 Y87.195 E0.00171
G1 X91.815 Y87.431 E0.00372
G1 X92.167 Y87.719 E0.00368
G1 X92.474 Y88.055 E0.00368
G1 X92.607 Y88.234 E0.00181
G1 X92.765 Y88.495 E0.00247
G1 X92.954 Y88.900 E0.00362
G1 X93.024 Y89.105 E0.00175
G1 X93.121 Y89.540 E0.00361
G1 X93.146 Y89.751 E0.00171
G1 X93.145 Y90.301 E0.00445
G1 X93.113 Y90.546 E0.00200
G1 X92.984 Y91.048 E0.00420
G1 X92.797 Y91.480 E0.00381
G1 X92.672 Y91.699 E0.00204
G1 X92.359 Y92.116 E0.00422
G1 X92.095 Y92.375 E0.00300
G1 X91.735 Y92.655 E0.00369
G1 X91.280 Y92.904 E0.00420
G1 X90.786 Y93.075 E0.00423
G1 X90.338 Y93.156 E0.00368
G1 X90.083 Y93.174 E0.00207
G1 X89.561 Y93.145 E0.00423
G1 X89.190 Y93.066 E0.00307
G1 X88.764 Y92.924 E0.00364
G1 X88.305 Y92.683 E0.00419
G1 X88.097 Y92.538 E0.00206
G1 X87.750 Y92.234 E0.00373
G1 X87.451 Y91.881 E0.00374
M204 S1250
G1 X87.143 Y92.119 F9000.000
M204 S300
G1 F900.000
G1 X86.934 Y91.806 E0.00304
G1 X86.798 Y91.550 E0.00234
G1 X86.613 Y91.070 E0.00416
G1 X86.514 Y90.686 E0.00321
G1 X86.470 Y90.398 E0.00236
G1 X86.456 Y89.813 E0.00473
G1 X86.526 Y89.288 E0.00428
G1 X86.596 Y89.008 E0.00234
G1 X86.812 Y88.454 E0.00481
G1 X87.111 Y87.954 E0.00471
G1 X87.460 Y87.538 E0.00439
G1 X87.698 Y87.315 E0.00264
G1 X88.096 Y87.020 E0.00401
G1 X88.314 Y86.893 E0.00204
G1 X88.824 Y86.668 E0.00451
G1 X89.297 Y86.537 E0.00398
G1 X89.557 Y86.494 E0.00213
G1 X89.818 Y86.472 E0.00212
G1 X90.321 Y86.483 E0.00408
G1 X90.579 Y86.515 E0.00210
G1 X90.898 Y86.584 E0.00264
G1 X91.373 Y86.744 E0.00405
G1 X91.603 Y86.851 E0.00205
G1 X92.032 Y87.108 E0.00405
G1 X92.243 Y87.267 E0.00213
